X: 725
T: Ey Safâ-yı Ârızından...
C: Tanburî İsak
O: Turkey
F: http://compmusic.upf.edu/node/140
N: sedaraban--beste--hafif--ey_safay-i--tanburi_isak
N: makam= sedaraban
N: form= beste
N: usul= hafif = 32/4
M: 32/4
L: 1/16
K: C _7/8B _7/8e ^f ^c
Q: 1/4=36
%%MIDI tuningsystem comma53
d8 f2 e6 e2 d6 c2 d2 c4  | d2 e2 d2 e2 f2 g a g2 f2 f2 e2 {f}e2 d2 d8  | 
w:  Ey   |  sa *  *  *  fâ  *  *  *  *  yı   | 
z4 a2 =c'2 _b4 a2 b2 a2 g2 f2 e2 d2 g f g2 a2  | \
w:  â  *  *  *  *  *  *  *  *  *  â *  *  rı  | 
a2 f4 d2 e2 d2 {f}e2 d2 c4 d12  | 
w:  *  zın *  *  *  *  *  *  dan   | 
z8 G4 d4 d8 _e3 d =c2 d2  | =c4 c2 d2 c4 =f2 _e4 d4 c2 c3 _B B3 A  | \
w:  çeş *  *  me   |  *  i  *  *  *  *  hûr  | 
G8 d2 e f e2 d2 d4 c4 z2 g f g2 a2  | 
w:  *  şî  *  *  *  *  *  *  şîd_ *  *  i   | 
a2 f4 d2 e2 d2 {f}e2 d2 d8 z8  | d8 d3 =c _1/4B2 c2 d12 z4  | \
w:  *  âb    |  Ah  ye  *  *  le  lâ   | 
g8 f2 e2 d2 =c2 g6 f2 f3 e e3 d  | 
w:  lel  lel  *  *  le  lâ   | 
d2 f4 e d d4 =c2 d2 _e4 d2 c2 d4 c2 _B2  | \
w:  *  *  *  *  *  ye  le  le  le  *  lel  *  le   | 
=c4 _B2 A2 B4 A2 G2 B2 A2 G2 F2 G8  | 
w:  le  le  *  lel  li  *  vay    | 
z8 d4 =c2 _B2 c6 e2 d6 G2  | d8 d4 =c2 _B2 c4 {_e}d2 c2 B2 A B c2 B A  | 
w:  Çeş *  *  *  *  me   |  i  *  *  *  hûr  | 
G4 =c4 c2 _B2 A2 G2 F2 E2 D4 z2 G F G2 A2  | \
w:  *  *  şî  *  *  *  *  *  *  şîd_ *  *  i   | 
A2 F4 D2 E2 D2 {F}E2 D2 D8 z8  | 
w:  *  âb    | 
d8 f2 e6 e2 d6 c2 d2 c4  | d2 e2 d2 e2 f2 g a g2 f2 f2 e2 {f}e2 d2 d8  | 
w:  Ey   |  sa *  *  *  fâ  *  *  *  *  yı   | 
z4 a2 =c'2 _b4 a2 b2 a2 g2 f2 e2 d2 g f g2 a2  | \
w:  â  *  *  *  *  *  *  *  *  *  â *  *  rı  | 
a2 f4 d2 e2 d2 {f}e2 d2 c4 d12  | 
w:  *  zın *  *  *  *  *  *  dan   | 
z8 G4 d4 d8 _e3 d =c2 d2  | =c4 c2 d2 c4 =f2 _e4 d4 c2 c3 _B B3 A  | \
w:  çeş *  *  me   |  *  i  *  *  *  *  hûr  | 
G8 d2 e f e2 d2 d4 c4 z2 g f g2 a2  | 
w:  *  şî  *  *  *  *  *  *  şîd_ *  *  i   | 
a2 f4 d2 e2 d2 {f}e2 d2 d8 z8  | d8 d3 =c _1/4B2 c2 d12 z4  | \
w:  *  âb    |  Ah  ye  *  *  le  lâ   | 
g8 f2 e2 d2 =c2 g6 f2 f3 e e3 d  | 
w:  lel  lel  *  *  le  lâ   | 
d2 f4 e d d4 =c2 d2 _e4 d2 c2 d4 c2 _B2  | \
w:  *  *  *  *  *  ye  le  le  le  *  lel  *  le   | 
=c4 _B2 A2 B4 A2 G2 B2 A2 G2 F2 G8  | 
w:  le  le  *  lel  li  *  vay    | 
z8 d4 =c2 _B2 c6 e2 d6 G2  | d8 d4 =c2 _B2 c4 {_e}d2 c2 B2 A B c2 B A  | 
w:  Çeş *  *  *  *  me   |  i  *  *  *  hûr  | 
G4 =c4 c2 _B2 A2 G2 F2 E2 D4 z2 G F G2 A2  | \
w:  *  *  şî  *  *  *  *  *  *  şîd_ *  *  i   | 
A2 F4 D2 E2 D2 {F}E2 D2 D8 z8  | 
w:  *  âb    | 
a3 g f2 g2 a4 g2 f2 _b8 a2 g2 f2 e2  | \
w:  San *  *  *  *  *  *  ma   | 
d2 e2 d2 e2 f2 g a g2 f2 f2 e2 {f}e2 d2 d8  | 
w:  şeb *  *  *  nem *  *  *  *  dir   | 
z4 f2 g2 a4 _1/4b2 =c'2 b4 c'2 d'2 c'3 b a4  | \
w:  dü  | 
a4 g2 a2 g4 a4 _b2 a2 {=c'}b2 a2 a2 g2 g2 f2  | 
w:  *  şen   | 
g4 z4 d4 g4 g4 {a}g2 f2 g4 z2 g2  | \
w:  *  mihr_ *  *  *  *  *  i  ru  | 
_b8 b2 a2 {b}a2 g2 a2 g2 {a}g2 a2 f2 e2 {f}e2 d2  | 
w:  hun *  *  *  *  *  dan   | 
d4 f4 f2 e2 d2 e2 d4 c4 z2 g f g2 a2  | \
w:  *  *  sub  *  *  *  *  *  sub *  hu  | 
a2 f4 d2 e2 d2 {e}e2 d2 d8 z8  | 
w:  *  dem    | 
g8 g3 f _1/4e2 f2 g12 z4  | g8 f2 e2 d2 =c2 g6 f2 f3 e e3 d  | \
w:  Ah  yel  *  *  le  lâ   |  yel  le  *  *  le  lâ   | 
d2 f4 e d d4 =c2 d2 _e4 d2 c2 d4 c2 _B2  | 
w:  *  *  *  *  *  ye  le  le  *  le  le  *  le   | 
=c4 _B2 A2 B4 A2 G2 B3 A G2 F2 G8  | \
w:  le  *  le  le  li  *  vay    | 
z8 d4 =c2 _B2 c6 e2 d6 G2  | d12 =c2 _B2 c4 {_e}d2 c2 B2 A B c2 B A  | 
w:  Mihr_ *  *  *  *  i  ru  |  hun *  *  dan   | 
G4 =c4 c2 _B2 A2 G2 F2 E2 D4 z2 G A G2 A2  | \
w:  *  *  su  *  *  *  *  *  *  sub *  *  hu  | 
A2 F4 D2 E2 D2 {F}E2 D2 D8 z8  | 
w:  *  dem    | 
d8 f2 e6 e2 d6 c2 d2 c4  | d2 e2 d2 e2 f2 g a g2 f2 f2 e2 {f}e2 d2 d8  | 
w:  Kub  |  be  *  *  *  i  *  *  *  *  ger  | 
z4 a2 =c'2 _b4 a2 b2 a2 g2 f2 e2 d2 g f g2 a2  | \
w:  du  *  *  *  *  *  *  *  *  *  dun  *  *  çı  | 
a2 f4 d2 e2 d2 {f}e2 d2 c4 d12  | 
w:  *  kar *  *  *  *  *  *  dı   | 
z8 G4 d4 d8 _e3 d =c2 d2  | =c4 c2 d2 c4 =f2 _e4 d4 c2 c3 _B B3 A  | \
w:  tâb_ *  *  ı   |  *  â *  *  *  *  hım  | 
G8 d2 e f e2 d2 d4 c4 z2 g f g2 a2  | 
w:  *  dan  *  *  *  *  *  *  dan  *  *  gü  | 
a2 f4 d2 e2 d2 {f}e2 d2 d8 z8  | d8 d3 =c _1/4B2 c2 d12 z4  | \
w:  *  lâb    |  Ah  ye  *  *  le  lâ   | 
g8 f2 e2 d2 =c2 g6 f2 f3 e e3 d  | 
w:  lel  lel  *  *  le  lâ   | 
d2 f4 e d d4 =c2 d2 _e4 d2 c2 d4 c2 _B2  | \
w:  *  *  *  *  *  ye  le  le  le  *  lel  *  le   | 
=c4 _B2 A2 B4 A2 G2 B2 A2 G2 F2 G8  | 
w:  le  le  *  lel  li  *  vay    | 
z8 d4 =c2 _B2 c6 e2 d6 G2  | d8 d4 =c2 _B2 c4 {_e}d2 c2 B2 A B c2 B A  | 
w:  Çeş *  *  *  *  me   |  i  *  *  *  hûr  | 
G4 =c4 c2 _B2 A2 G2 F2 E2 D4 z2 G F G2 A2  | \
w:  *  *  şî  *  *  *  *  *  *  şîd_ *  *  i   | 
A2 F4 D2 E2 D2 {F}E2 D2 D8 z8  | 
w:  *  âb    | 
|


